X: 36001
T: Sauntering In The Lane
R: reel
M: 4/4
K: Dmajor
(3ABc||dcdA BAFE|DFAc dcBA|dfaf bagf|eagb a2 (3ABc|
dcdA BAFE|DFAc dcBA|dfaf bgec|dfec d2 A2||
defg afdf|afgf afdc|defg afdf|gfed c2 Bc|
defg afdf|afgf afdf|gfed cABc|dfec d2 (3ABc||

